picto/tracks-90-de-small.svg

<svg class="color-immutable" width="24" height="24" viewBox="0 0 24 24" fill="none" xmlns="http://www.w3.org/2000/svg"><path d="M0 22.5V1.5C0 0.675 0.675 0 1.5 0H22.5C23.325 0 24 0.675 24 1.5V22.5C24 23.325 23.325 24 22.5 24H1.5C0.675 24 0 23.325 0 22.5Z" fill="#2D327D"/><path d="M3.36799 18.179H5.48999C5.66399 19.051 6.16899 19.486 7.00499 19.486C7.47699 19.486 7.85999 19.326 8.15499 19.005C8.44999 18.685 8.67699 18.186 8.83599 17.509C8.93899 17.078 9.01299 16.589 9.05899 16.04C8.71499 16.522 8.36299 16.864 8.00199 17.067C7.63999 17.271 7.19999 17.372 6.68199 17.372C5.85599 17.372 5.13899 17.131 4.52899 16.649C4.10299 16.311 3.77099 15.872 3.53299 15.334C3.29499 14.796 3.17499 14.211 3.17499 13.581C3.17499 12.315 3.60799 11.289 4.47499 10.505C5.21799 9.828 6.10999 9.489 7.15099 9.489C7.79199 9.489 8.38399 9.633 8.92699 9.92C9.46999 10.207 9.92699 10.615 10.296 11.143C10.947 12.081 11.273 13.399 11.273 15.096C11.273 16.665 10.986 18.003 10.412 19.11C9.66299 20.551 8.52999 21.271 7.01299 21.271C6.00299 21.271 5.16899 20.992 4.50999 20.433C3.85099 19.874 3.46999 19.123 3.36799 18.179ZM7.10499 11.389C6.62299 11.389 6.21499 11.586 5.88199 11.981C5.54899 12.381 5.38199 12.888 5.38199 13.504C5.38199 14.001 5.50199 14.442 5.74299 14.827C6.07099 15.355 6.53199 15.619 7.12699 15.619C7.66499 15.619 8.09599 15.404 8.41899 14.973C8.72099 14.568 8.87299 14.086 8.87299 13.527C8.87299 12.937 8.71699 12.438 8.40399 12.027C8.07699 11.602 7.64299 11.389 7.10499 11.389Z" fill="white"/><path d="M16.821 9.489C17.677 9.489 18.431 9.75 19.082 10.273C19.728 10.796 20.197 11.601 20.489 12.688C20.709 13.519 20.82 14.421 20.82 15.395C20.82 17.01 20.533 18.338 19.959 19.379C19.621 19.984 19.178 20.451 18.632 20.779C18.086 21.107 17.477 21.271 16.805 21.271C15.887 21.271 15.103 20.994 14.452 20.44C13.293 19.456 12.714 17.774 12.714 15.395C12.714 13.703 13.016 12.345 13.621 11.319C13.964 10.735 14.414 10.283 14.971 9.965C15.528 9.648 16.144 9.489 16.821 9.489ZM16.737 11.389C15.999 11.389 15.496 11.815 15.23 12.666C15.02 13.343 14.915 14.291 14.915 15.511C14.915 16.588 15.023 17.452 15.238 18.103C15.515 18.949 16.027 19.372 16.776 19.372C17.396 19.372 17.858 19.044 18.16 18.388C18.462 17.732 18.614 16.73 18.614 15.381C18.614 14.233 18.506 13.328 18.291 12.666C18.013 11.814 17.495 11.389 16.737 11.389Z" fill="white"/><path d="M5.09599 4.037V5.249H4.78199L4.73299 4.992C4.56599 5.199 4.34199 5.303 4.05999 5.303C3.71599 5.303 3.44499 5.176 3.24599 4.922C3.08199 4.709 2.99899 4.447 2.99899 4.135C2.99899 3.781 3.10699 3.492 3.32199 3.266C3.52399 3.053 3.78499 2.946 4.10499 2.946C4.39999 2.946 4.64099 3.041 4.82599 3.232C4.96499 3.376 5.04399 3.545 5.06499 3.74H4.58899C4.56499 3.619 4.50999 3.524 4.42399 3.457C4.33899 3.389 4.22999 3.355 4.09899 3.355C3.89999 3.355 3.74599 3.432 3.63799 3.586C3.54199 3.72 3.49399 3.902 3.49399 4.13C3.49399 4.354 3.53899 4.531 3.62799 4.662C3.73799 4.824 3.89999 4.904 4.11399 4.904C4.26899 4.904 4.39599 4.857 4.49499 4.764C4.59399 4.671 4.64599 4.548 4.65099 4.396H4.15099V4.036H5.09599V4.037Z" fill="white"/><path d="M5.90299 3V5.249H5.45699V3H5.90299Z" fill="white"/><path d="M7.77499 4.726C7.75099 4.82 7.70899 4.909 7.64699 4.992C7.49999 5.194 7.28699 5.295 7.00999 5.295C6.75999 5.295 6.55899 5.216 6.40899 5.058C6.33499 4.981 6.27899 4.888 6.23999 4.78C6.19799 4.664 6.17699 4.543 6.17699 4.417C6.17699 4.173 6.24699 3.968 6.38799 3.802C6.54499 3.616 6.74799 3.524 6.99699 3.524C7.19799 3.524 7.36899 3.586 7.51099 3.71C7.61299 3.799 7.68599 3.909 7.73199 4.04C7.77799 4.171 7.80099 4.335 7.80099 4.533H6.63099C6.63499 4.615 6.64799 4.683 6.66899 4.738C6.72899 4.885 6.84399 4.958 7.01399 4.958C7.09699 4.958 7.16499 4.94 7.21699 4.903C7.26899 4.867 7.31199 4.808 7.34599 4.727H7.77499V4.726ZM7.34599 4.232C7.33799 4.151 7.31899 4.084 7.28999 4.031C7.26199 3.978 7.22099 3.937 7.16799 3.906C7.11499 3.875 7.05799 3.86 6.99499 3.86C6.89599 3.86 6.81399 3.893 6.74899 3.96C6.68399 4.026 6.64599 4.117 6.63399 4.232H7.34599Z" fill="white"/><path d="M8.52399 3V3.401H8.07799V3H8.52399ZM8.52399 3.572V5.249H8.07799V3.572H8.52399Z" fill="white"/><path d="M10.248 4.06H9.82999C9.82199 4.002 9.80599 3.959 9.78199 3.929C9.73599 3.87 9.64999 3.84 9.52499 3.84C9.44599 3.84 9.38499 3.854 9.34199 3.883C9.29899 3.912 9.27799 3.952 9.27799 4.004C9.27799 4.059 9.30199 4.1 9.34999 4.126C9.39799 4.152 9.50699 4.182 9.67699 4.217C9.89299 4.261 10.049 4.316 10.145 4.382C10.258 4.459 10.314 4.576 10.314 4.733C10.314 4.912 10.244 5.051 10.105 5.15C9.96599 5.246 9.78399 5.295 9.55699 5.295C9.27599 5.295 9.06999 5.226 8.93899 5.087C8.85099 4.993 8.80199 4.864 8.79199 4.701H9.21999C9.22799 4.777 9.24799 4.834 9.27799 4.873C9.33499 4.943 9.42999 4.978 9.56299 4.978C9.65499 4.978 9.72899 4.959 9.78299 4.922C9.83599 4.884 9.86399 4.834 9.86399 4.77C9.86399 4.713 9.84099 4.67 9.79399 4.642C9.74699 4.614 9.64899 4.582 9.49799 4.547C9.35199 4.513 9.24899 4.487 9.18899 4.468C9.12799 4.449 9.07399 4.426 9.02499 4.4C8.96299 4.364 8.91399 4.314 8.87899 4.249C8.84399 4.184 8.82699 4.113 8.82699 4.034C8.82699 3.86 8.89899 3.727 9.04399 3.636C9.16199 3.56 9.32599 3.523 9.53599 3.523C9.81399 3.523 10.013 3.594 10.134 3.735C10.2 3.812 10.238 3.92 10.248 4.06Z" fill="white"/></svg>

<svg class="color-immutable" width="24" height="24" viewBox="0 0 24 24" fill="none" xmlns="http://www.w3.org/2000/svg"><g clip-path="url(#a)"><path d="M0 22.5v-21C0 .675.675 0 1.5 0h21c.825 0 1.5.675 1.5 1.5v21c0 .825-.675 1.5-1.5 1.5h-21C.675 24 0 23.325 0 22.5Z" fill="#2D327D"/><path d="M3.368 18.179H5.49c.174.872.679 1.307 1.515 1.307.472 0 .855-.16 1.15-.481.295-.32.522-.819.681-1.496a9.92 9.92 0 0 0 .223-1.469c-.344.482-.696.824-1.057 1.027-.362.204-.802.305-1.32.305-.826 0-1.543-.241-2.153-.723a3.401 3.401 0 0 1-.996-1.315 4.287 4.287 0 0 1-.358-1.753c0-1.266.433-2.292 1.3-3.076.743-.677 1.635-1.016 2.676-1.016.641 0 1.233.144 1.776.431.543.287 1 .695 1.369 1.223.651.938.977 2.256.977 3.953 0 1.569-.287 2.907-.861 4.014-.749 1.441-1.882 2.161-3.399 2.161-1.01 0-1.844-.279-2.503-.838-.659-.559-1.04-1.31-1.142-2.254Zm3.737-6.79c-.482 0-.89.197-1.223.592-.333.4-.5.907-.5 1.523 0 .497.12.938.361 1.323.328.528.789.792 1.384.792.538 0 .969-.215 1.292-.646.302-.405.454-.887.454-1.446 0-.59-.156-1.089-.469-1.5a1.56 1.56 0 0 0-1.299-.638ZM16.821 9.489c.856 0 1.61.261 2.261.784.646.523 1.115 1.328 1.407 2.415.22.831.331 1.733.331 2.707 0 1.615-.287 2.943-.861 3.984-.338.605-.781 1.072-1.327 1.4a3.48 3.48 0 0 1-1.827.492c-.918 0-1.702-.277-2.353-.831-1.159-.984-1.738-2.666-1.738-5.045 0-1.692.302-3.05.907-4.076a3.654 3.654 0 0 1 1.35-1.354 3.673 3.673 0 0 1 1.85-.476Zm-.084 1.9c-.738 0-1.241.426-1.507 1.277-.21.677-.315 1.625-.315 2.845 0 1.077.108 1.941.323 2.592.277.846.789 1.269 1.538 1.269.62 0 1.082-.328 1.384-.984.302-.656.454-1.658.454-3.007 0-1.148-.108-2.053-.323-2.715-.278-.852-.796-1.277-1.554-1.277ZM5.096 4.037v1.212h-.314l-.049-.257a.82.82 0 0 1-.673.311c-.344 0-.615-.127-.814-.381a1.251 1.251 0 0 1-.247-.787c0-.354.108-.643.323-.869.202-.213.463-.32.783-.32.295 0 .536.095.721.286a.842.842 0 0 1 .239.508h-.476a.458.458 0 0 0-.165-.283.505.505 0 0 0-.325-.102.53.53 0 0 0-.461.231c-.096.134-.144.316-.144.544 0 .224.045.401.134.532.11.162.272.242.486.242a.534.534 0 0 0 .381-.14.506.506 0 0 0 .156-.368h-.5v-.36h.945v.001ZM5.903 3v2.249h-.446V3h.446ZM7.775 4.726a.752.752 0 0 1-.128.266c-.147.202-.36.303-.637.303-.25 0-.451-.079-.601-.237a.775.775 0 0 1-.169-.278 1.058 1.058 0 0 1-.063-.363c0-.244.07-.449.211-.615a.76.76 0 0 1 .609-.278.754.754 0 0 1 .735.516c.046.131.069.295.069.493h-1.17c.004.082.017.15.038.205.06.147.175.22.345.22a.343.343 0 0 0 .203-.055.39.39 0 0 0 .129-.176h.429v-.001Zm-.429-.494a.525.525 0 0 0-.056-.201.334.334 0 0 0-.295-.171.328.328 0 0 0-.246.1.44.44 0 0 0-.115.272h.712ZM8.524 3v.401h-.446V3h.446Zm0 .572v1.677h-.446V3.572h.446ZM10.248 4.06H9.83a.265.265 0 0 0-.048-.131c-.046-.059-.132-.089-.257-.089a.326.326 0 0 0-.183.043.137.137 0 0 0-.064.121.13.13 0 0 0 .072.122c.048.026.157.056.327.091.216.044.372.099.468.165.113.077.169.194.169.351 0 .179-.07.318-.209.417-.139.096-.321.145-.548.145-.281 0-.487-.069-.618-.208a.6.6 0 0 1-.147-.386h.428a.338.338 0 0 0 .058.172c.057.07.152.105.285.105a.385.385 0 0 0 .22-.056.179.179 0 0 0 .081-.152c0-.057-.023-.1-.07-.128a1.211 1.211 0 0 0-.296-.095 4.8 4.8 0 0 1-.309-.079.95.95 0 0 1-.164-.068.379.379 0 0 1-.146-.151.444.444 0 0 1-.052-.215c0-.174.072-.307.217-.398.118-.076.282-.113.492-.113.278 0 .477.071.598.212a.546.546 0 0 1 .114.325Z" fill="#fff"/></g><defs><clipPath id="a"><path fill="#fff" d="M0 0h24v24H0z"/></clipPath></defs></svg>
